X:1
T:Durham, 88.86
T:Durham, 88.86
T:John Bacchus Dykes (1823-1876)
T:Public Domain Courtesy of the Cyber Hymnal™
C:John Bacchus Dykes (1823-1876)
Z:Public Domain
Z:Courtesy of the Cyber Hymnal™
%%score ( 1 2 ) ( 3 4 )
L:1/8
M:3/4
K:E
V:1 treble 
V:2 treble 
V:3 bass 
V:4 bass 
V:1
 [EB]2 [EG]2 [Ec]2 | [EB]4 [EG]2 | [FA]4 [DB]2 | [EG]6 | [EA]2 [EA]2 [EA]2 | [EB]4 [Ec]2 | %6
 [EB]4 [EG]2 | [DF]6 | F2 F2 [^EG]2 | [FA]4 [FA]2 | A4 [DB]2 | [EG]4 [EG]2 | [EF]4 [Ec]2 | %13
 [DB]4 [B,D]2 | [B,E]6 |] %15
V:2
 x6 | x6 | x6 | x6 | x6 | x6 | x6 | x6 | F2 F2 x2 | x6 | (F2 E2) x2 | x6 | x6 | x6 | x6 |] %15
V:3
 [E,G,]2 [E,B,]2 [E,A,]2 | (G,2 B,2) [E,E]2 | (D2 C2) [B,,B,]2 | [E,B,]6 | %4
 [C,A,]2 [C,A,]2 [C,A,]2 | [B,,G,]4 [A,,A,]2 | [E,G,]4 [G,B,]2 | B,6 | [B,D]2 [A,C]2 [G,B,]2 | %9
 [F,C]4 [E,C]2 | B,4 [B,,B,]2 | [E,B,]4 [E,B,]2 | [A,,C]4 [A,,F,]2 | [B,,F,]4 [B,,A,]2 | [E,G,]6 |] %15
V:4
 x6 | E,4 x2 | B,,4 x2 | x6 | x6 | x6 | x6 | B,6 | x6 | x6 | (D,2 C,2) x2 | x6 | x6 | x6 | x6 |] %15

